X:1
T:THE LOST CHORD.
T:THE LOST CHORD
T:ARTHUR SULLIVAN
T:ADELAIDE A. PROCTOR
T:Words by
T:Music by
C:Arthur Sullivan.
Z:Adelaide A. Proctor.
%%score 1 { ( 2 6 7 8 ) | ( 3 4 5 9 ) }
L:1/8
Q:1/4=80
M:4/4
K:F
V:1 treble nm="Voice"
V:2 treble nm="Piano"
V:6 treble 
V:7 treble 
V:8 treble 
V:3 bass 
V:4 bass 
V:5 bass 
V:9 bass 
V:1
"^Andante moderato" z8 | z8 | z8 | z8 | z8 | z8 | z8 | z8 | z8 |!p! F2 F F F2 F F | F2 F2 z2 F F | %11
w: |||||||||Seat- ed one day at the|or- gan, I was|
 F2 F F G3 G | A4 z2 F F | B3 B B2 B2 | A4 G4 | F2 G A G2 F2 | E4 z2 C2 | D2 ^D2 E2 F F | %18
w: wea- ry and ill at|ease, And my|fin- gers wand- er'd|i- dly|O- ver the noi- sy|keys; I|know not what I was|
 A2 G2 z2"^cresc." E2 | ^F2 ^G G A2 =B2 | c4 z2 C C | A2 _B2 c2 A2 | F2 G2 A2 B2 | %23
w: play- ing, Or|what I was dream- ing|then, But I|struck one chord of|mu- sic, Like the|
 A2"^cresc." G"_cresc." F G2 E2 | F4!f! G2 G2 | B4 A2 G2 | %26
w: sound of a great A-|men, Like the|sound of a|
"^poco rall."[Q:1/4=80]!>(! (F[Q:1/4=76]"^.3"E[Q:1/4=72]"^.5"F[Q:1/4=68]"^.8"D)!>)![Q:1/4=65]"^dim.""_dim." G4 | %27
w: great _ _ _ A-|
[Q:1/4=80]!p! F6 z2 | z8 | z8 | z8 | z4 z2 C2 | F2 F F F2 F2 | F2 F2 z2 F F | F2 F F G3 G | %35
w: men||||It|flood- ed the crim- son|twi- light, Lke the|close of an An- gel's|
 A4 z2"^cresc.""_cresc." F F | B2 B B B2 B2 |"^dim.""_dim." A4 G2 G G | F2 (GA) G3/2 G/ F2 | %39
w: Psalm, And it|lay on my fe- ver'd|spi- rit, Wtih a|touch of * in- fin- te|
 E4 z2 C2 | D D ^D2 E2 F2 | A2 G2!mp! z2"^cresc.""_cresc." E2 | ^F2 ^G G A2 =B2 | c6"^dim." C2 | %44
w: calm, It|qui- et- ed pain and|sor- row, Like|love ov- er- com- ing|strife, It|
 A A B2 c2 A2 | (F2 G2) A2 B2 | A2 (GF) G2 E2 | F4!p! z2 F2 |"^tranquillo sempre." F2 E E E2 F2 | %49
w: seem'd the har- mo- nious|e- * cho, From|our dis- * cord- ant|life, It|link'd all per- plex- ed|
 E2 D2 z2 C C | B4 B3 B | A4 z2 F2 |"^poco a poco piu animato" F2 E E E2 F F | E2 D2 z2 D2 | %54
w: mean- ings, in- to|one per- fect|peace, And|trem- bled a- way in- to|si- lence, As|
 D2 ^C D E3 D | ^C4 z2"^agitato"!f! A A | B2 B B B3 B | B2 A2 z2 A2 | ^G2 G2 G3 G | =G4 z2 G2 | %60
w: if it were loth to|cease; I have|sought, but I seek it|vain- ly, That|one lost chord di-|vine, Which|
 ^F2 A A d2 A =F | F2 E2 z2 E2 | D3 D D2 D2 | E6 z2 | z4 z2!f!"^Grandioso." C2 | F2 F F F2 F2 | %66
w: came from the soul of the|or- gan, And|en- ter'd in- to|mine.|It|may be that Death's bright|
 F2 F4 F2 | F2 F F G3 G | A4 z2 F2 | B2 B B B2 B B | A4 G2 G2 | F2 (GA) G2 F2 | E4 z2 C2 | %73
w: An- gel, Will|speak in that chord a-|gain; It|may be that on- ly in|Heav'n, I shall|hear that * grand A-|men, It|
 c2 c c A2 A2 | F4 D2 D2 | B2 B B G2 G2 | C6!ff! F2 |"^ritard." F2 G G A2 c c | %78
w: may be that Death's bright|An- gel, Will|speak in that chord a-|gain, It|may be that on- ly in|
 f4"^con gran" F2 B2 |"^forza." A6 A2 | F4 !fermata!G4 | F8- | F6 z2 | z8 | !fermata!z8 |] %85
w: Heav'n, I shall|hear that|grand A-|men.|_|||
V:2
 z4 z2 x2 | z4"_cresc." z2 G2 | z4 z2 x2 | x8 | x8 |"_dim." d2 G2 A2 c2 | x4 x4 |!p! [CF]8 | %8
 [A,CF]8 | [A,CF]8 | [A,DFA]8 | [CFc]4 [EGc]4 | [CFc]8 | [DFB]4 [FBd]4 | [FAf]4 [Gc]4 | c4 =B4 | %16
 c8 | c4 c4 | A2 G2"_cresc." z2 e2 | [ce]2 [=Bd]2 [Ac]2!mf! [E^GB]2 |"_dim." [Ac]2 A2 _B2 c2 | %21
 A4!p! A4 | F2 G2 A2 B2 | A2"_cresc." [B,CG][A,F] [B,G]2 [G,E]2 | [B,F]4 [B,_EG]2 [B,EG]2 | %25
 [B,DF]4 F2 F2 |"_poco rall." F4 [_B,CE]4 | [A,CF]2"_cresc." z2 z2 F2 | B2 d2!f! g2 f2 | %29
 e2 [Bd]2 [Ac]2 [GB]2 | A2"_dim." F2 [B,G]4 | [CF]4- [CF]2 z2 |!p! (f2 c2 f2 g2) | a2 f2 a2 b2 | %34
 c'2 a2 g2 c'2- | c'2 a2 f2"_cresc." a2 | b2 c'2 d'2 =e'2 |"_dim." f'2 c'4 c'2- | c'2 c'2 =b4 | %39
 c'2 z2 z2 c'2 | =b2 a2 g2 =f2 | [df]2 e2!mp! g2"_cresc." e'2 | e'2 d'2 c'2 =b2 | %43
 c'2 c2"_dim." d2 e2 | f4 [ce]4 | d4 c2 f2 | c4 c4 | [Ac]2"_tranquillo." x2 x4 | %48
 [Ff]2 [Ff]2 [Ff]2 [Ff]2 | x4 x4 | B4 B4 | [FAf]2 F2 F2 F2 |"_cresc." F2 F2"_animato" F2 F2 | %53
 F2 F2 F2 F2 | E2 E2 E2 E2 |!f! z"_agitato" [A,^CE][A,CE][CEA] [CEA][EA^c][EAc][Ace] | %56
!f! e4 f2 e2 | d4 z2 d2 | d4 e2 d2 | ^c2 e4 c2 | d4 a4- | a2 a2 a2 a2 | [Aa]4 [Bd][Bd][Bd][Bd] | %63
 [EB=ce]"_cresc."[EBce][Fdf][Fdf] [Geg][Geg]"_molto"[Afa][Afa] | %64
"_ritard." [Bgb][Bgb][cac'][cac'] [dbd'][dbd']!f![ebe'][ebe'] | [faf']2 [A,CF]4 [A,CF]2 | %66
 [Adfa]2 [FA]4 [FA]2 | [FAc]4 [EBc]4 | [FAc]2 [CFA]4 [A,CF]2 | [DFB]4 [FBd]4 | [FAcf]4 [Gcg]4 | %71
 [Adfa]4 [=Bdf=b]4 | [cegc']2 [Gceg]2 [EGce]2 [Gceg]2 | [CEAc]4 [A,CEA]4 | [DF]4 [B,D]4 | %75
 [B,DGB]4 [DGBd]4 | [CGc]2 [CGB]2 [CFA]2!fff! [Fc_e]2 |"_ritard." [FBd]2 [=EG_d]2 [CFc]2 [CEB]2 | %78
"_colla voce." [C_EA]4"_con gran" [DF]2 [DFBd]2 |"_forza." [CFAc]8 | [DFc]4 !fermata![EGc]4 | %81
"_a tempo." [CF]4 [_EF]4 | F2 B2 [CFc]2 [DFd]2 |"_rallentando." [Fcf]8 | !fermata![Fcf]8 |] %85
V:3
!p! [F,,,F,,]8 |!ped!{F,,,} F,,8!ped-up! |!ped! [F,,C,]8!ped-up! | A,4 B,2 G,2 | C4 B,2 A,2 | C,8 | %6
 C,4!p! [C,,C,]4 | [F,,C,]8 | [F,,C,]8 |!p!!ped! [F,,F,]8!ped-up! |!ped! [D,,D,]8!ped-up! | %11
 [C,A,]4 [C,B,]4 |!ped! [F,,C,A,]8!ped-up! | [F,,F,]4 [F,B,D]4 | [F,C]4 [E,C]4 | [D,D]4 [G,,G,]4 | %16
 [C,,C,]6 E,2 | F,2 ^F,2 G,2 A,2 | =B,2 C2 z2 E,2 | ^F,2 ^G,2 A,2 x2 | A,,2 A,2 G,2 C,2 | %21
!p! F,4 C,4 | D,2 B,,2 A,,2 G,,2 | C,4 [C,,C,]4 | F,4!f! x2 x2 | [B,,,B,,]4 [F,A,]2 [F,=B,]2 | %26
"^dim." [G,C]4 [C,,C,]4 |!p!!ped! [F,,,F,,]8!ped-up! |!ped! x2 C2 B,4-!ped-up! | B,2 G,2 C4- | %30
 C2 [A,,,A,,]2 [C,,C,]4 | [F,,,F,,]4- [F,,,F,,]2 z2 |[K:treble] [FA]8 | [DFA]4 F2 G2 | %34
 A2 c2 [Bc]4 |!ped! [Ac]6 _e2!ped-up! | d4 d4 | c4 c2 G2 | B2 F2 D2 G2 | G6 E2 | F2 ^F2 G2 A2 | %41
 A2 G2 z2 E2 | ^F2 ^G2 A2 d2 | c2 z2 G2 C2 |!p! F4!p! C4 | F4 F2 F2 | F4 E4 | %47
[K:bass]!p! F,2 z2 z4 | [D,D]4 [C,C]4 | [B,,B,]4 [A,,A,]4 | x4 x4 | [F,,F,]4 F,2 F,2 | %52
 F,2 F,2 F,2 F,2 |!ped! F,2 F,2 F,2 F,2!ped-up! | E,2 E,2 E,2 E,2 | %55
!ped! [A,,,A,,]2 [A,,,A,,]2 [A,,,A,,]2 [A,,,A,,]2!ped-up! | [A,^C]4 [A,C]4 | %57
 [A,DF][A,DF][A,DF][A,DF] [A,DF][A,DF][A,DF][A,DF] | [=A,B,E]4 [A,B,E]4 | %59
!ped! [A,^C=G][A,CG][A,CG][A,CG] [A,CG][A,CG][A,CG][A,CG]!ped-up! | [A,D^F]4 [A,D=F]4 | %61
 [G,A,^CE][G,A,CE][G,A,CE][G,A,CE] [G,A,CE][G,A,CE][G,A,CE][G,A,CE] | %62
 [F,A,D][F,A,D][F,A,D][F,A,D] [B,D][B,D] [G,B,D][G,B,D] | [=C,=C]2[K:treble] DD EEFF | GGAA BBGG | %65
[K:bass]!ff!!ped! [F,,,F,,]2 [F,,C,F,]4 [F,,C,F,]2!ped-up! | %66
!ped! [D,,D,]2 [D,A,D]4 [D,A,D]2!ped-up! | %67
!ped! [C,,C,]2 [C,F,A,C]2!ped-up!!ped! [C,,C,]2 [C,G,B,C]2!ped-up! | %68
!ped! [F,,,F,,]2 [F,,C,F,]4 [F,,C,F,]2!ped-up! | %69
"^sempre"!ped! [F,,F,]2 [F,B,D]2 [F,,F,]2 [F,B,D]2!ped-up! | %70
!ped! [F,,F,]2 [F,A,C]2!ped-up!!ped! [E,,E,]2 [E,G,C]2!ped-up! | %71
!ped! [D,,D,]2 [D,F,A,C]2!ped-up!!ped! [G,,,G,,]2 [D,F,G,=B,]2!ped-up! | %72
!ped! [C,,C,]2 [C,E,G,C]4 [_B,,,_B,,]2!ped-up! | [A,,,A,,]4 [A,,,A,,]4 | F,4 D,4 | %75
 [G,,,G,,]4 [F,,,F,,]4 | [E,,,E,,]4 [F,,,F,,]2 [A,,,A,,]2 | [B,,,B,,]2 [B,,B,]2 [A,,A,]2 [G,,G,]2 | %78
 [F,,F,]4 [B,,B,]2 [G,,G,]2 |!ped! [C,,C,]8!ped-up! | %80
!ped! [C,A,C]2 [C,,C,]2!ped-up!!ped! [C,B,]2 !fermata![C,,C,]2!ped-up! | [F,,,F,,]4 [F,,,F,,]4 | %82
!ped! [F,,,F,,]4 [F,,F,]2 [F,B,]2!ped-up! |!ped! [C,F,B,]2 [F,,,F,,]2 !>!A,2 !>!G,2!ped-up! | %84
!ped! !>![F,,C,A,]8!ped-up! |] %85
V:4
 z2 C,2 F,2 E,2 | D,2 C,2 B,,4 | x8 | [F,,C,]4 [G,,C,]4 | [A,,C,]4 B,,4 | x2 B,2 A,2 F,2 | x8 | %7
 x8 | x8 | x8 | x8 | x8 | x8 | x8 | x8 | x8 | x6 C,2 | C,4 C,4 | C,4 =B,,4 | A,,4 A,,4 | x8 | x8 | %22
 x8 | x8 | [D,,D,]4 [_E,,_E,]2 [E,,E,]2 | x4 [D,,D,]2 [D,,D,]2 | [C,,C,]4 x4 | x8 | [F,,,F,,]8 | %29
 F,8 | F,2 x6 | x8 |[K:treble] x8 | x4 D4 | C4 C4 | F6 F2 | F4 F4 | F4 E4 | D4 G,4 | C6 C2 | %40
 D2 ^D2 E2 =F2 | x6 C2 | =B,4 E4 | A4 G4 | F4 x4 | D2 B,2 A,2 [G,D]2 | C4 C4 |[K:bass] x8 | x8 | %49
 x8 | [G,,G,]4 [C,G,]4 | x4 [E,,E,]4 | [D,,D,]4 [C,,C,]4 | [=B,,,=B,,A,]8 | %54
 [=B,,,=B,,]4 [_B,,,_B,,]4 | x8 | x8 | x8 | x8 | x8 | x8 | x8 | x8 | x2[K:treble] C2 C2 C2 | %64
 C6 C2 |[K:bass] x8 | x8 | x8 | x8 | x8 | x8 | x8 | x8 | x8 | %74
 [A,,,A,,]2 [C,,C,]2 [B,,,B,,]2 [A,,,A,,]2 | x8 | x8 | x8 | x8 | x8 | x8 | x8 | x8 | x8 | %84
 x4 !fermata!F,,,4 |] %85
V:5
 x6 F,2 | B,2 A,2 G,4- | G,2 G,2 C2!f! B,2 | x8 | x8 | G,2 C4 D2 | x8 | x8 | x8 | x8 | x8 | x8 | %12
 x8 | x8 | x8 | x8 | x8 | x8 | x8 | x8 | x8 | x8 | x8 | x8 | x8 | x8 | x8 | x8 | x8 | x8 | x8 | %31
 x8 |[K:treble] x8 | x8 | x8 | x8 | x8 | x8 | x8 | x8 | x8 | x8 | x8 | x8 | x8 | x8 | x8 | %47
[K:bass] x8 | x8 | x8 | x8 | x8 | x8 | x8 | x8 | x8 | x8 | x8 | x8 | x8 | x8 | x8 | x8 | %63
 x2[K:treble] x6 | x8 |[K:bass] x8 | x8 | x8 | x8 | x8 | x8 | x8 | x8 | x8 | x8 | x8 | x8 | x8 | %78
 x8 | x8 | x8 | x8 | x8 | x8 | x8 |] %85
V:6
 x8 | z2"_cresc." D2 G2 F2 | E6 [EG]2 | F4 [EB]4- | [EB]2 [FA]2 G2 F2 | E2 E2 F2 A2 | x8 | %7
 B,4 A,2 G,2 | x8 | x8 | x8 | x8 | x8 | x8 | x8 | F2 GA G2 F2 | E4 C4 | D2 ^D2 E2 =F2 | %18
 F2 E2 x2 E2 | E4 E2 D2 | [CE]2 [CE]2 [DF]2 [CE]2 | [CF]4 [CE]4 | [A,D]2 [B,D]2 [CF]2 [DF]2 | %23
 [CF]2 x2 C4 | x8 | x8 | x8 | x2 C2 F2 E2 | D2 A2 G4- | G2 E4 E2 | F2 C2 F2 E2 | (B,4 A,2) x2 | %32
 x8 | x4 f4 | f4 f2 e2 | f4 f2 f2 | [fb]4 [fb]4 | f4 g4 | f2 ga g2 f2 | e2 g2 e2 c2 | c4 c4 | %41
 =B2 c2 x2 e2 | e4 e2 ^g2 | a2 c2 _B4 | A4 A4 | A2 B2 c2 B2 | A4 B4 | F2 [Ff]2 [Ff]2 [Ff]2 | x8 | %49
 [Ff]2 [Ff]2 [Ff]2 [Ff]2 | [Ff]2 [Ff]2 [Ee]2 [Ee]2 | x8 | x8 | x8 | [^G,D]4 [G,D]4 | x8 | %56
 [GB]4 [GB]4 | B2 A2 x2 A2 | ^G4 G4 | A4 A4 | A4 A4- | A2 A2 A2 A2 | x8 | x8 | x8 | x8 | x8 | x8 | %68
 x8 | x8 | x8 | x8 | x8 | x8 | x8 | x8 | x8 | x8 | x8 | x8 | x8 | B,2 A,2 G,2 A,2 | %82
 [B,_E]2 [B,D]2 x4 | x8 | x8 |] %85
V:7
 x8 | x8 | c2 B2 A2 c2 | f2 e2 d2 c2 | c4 d4- | x8 | [GB]2 A2 [B,G]4 | x8 | x8 | x8 | x8 | x8 | %12
 x8 | x8 | x8 | x8 | x8 | x8 | x8 | x8 | x8 | x8 | x8 | x8 | x8 | x8 | x8 | x8 | x8 | x8 | x8 | %31
 x8 | x8 | x8 | x8 | x8 | x8 | x8 | x8 | x8 | x8 | x8 | x8 | x8 | x8 | x8 | x8 | x8 | x8 | x8 | %50
 x8 | x8 | x8 | x8 | x8 | x8 | x8 | x8 | x8 | x8 | x8 | x8 | x8 | x8 | x8 | x8 | x8 | x8 | x8 | %69
 x8 | x8 | x8 | x8 | x8 | x8 | x8 | x8 | x8 | x8 | x8 | x8 | x8 | x8 | x8 | x8 |] %85
V:8
 x8 | x8 | x8 | x8 | x8 | x8 | E2 F2 F2 E2 | x8 | x8 | x8 | x8 | x8 | x8 | x8 | x8 | x8 | x8 | x8 | %18
 x8 | x8 | x8 | x8 | x8 | x8 | x8 | x8 | x8 | x8 | x8 | x8 | x8 | x8 | x8 | x8 | x8 | x8 | x8 | %37
 x8 | x8 | x8 | x8 | x8 | x8 | x8 | x8 | x8 | x8 | x8 | x8 | x8 | x8 | x8 | x8 | x8 | x8 | x8 | %56
 x8 | x8 | x8 | x8 | x8 | x8 | x8 | x8 | x8 | x8 | x8 | x8 | x8 | x8 | x8 | x8 | x8 | x8 | x8 | %75
 x8 | x8 | x8 | x8 | x8 | x8 | x8 | x8 | x8 | x8 |] %85
V:9
 x8 | x8 | x8 | x8 | x8 | x8 | x8 | x8 | x8 | x8 | x8 | x8 | x8 | x8 | x8 | x8 | x8 | x8 | x8 | %19
 x8 | x8 | x8 | x8 | x8 | x8 | x8 | x8 | x8 | x6 G,2 | C2 x6 | x8 | x8 |[K:treble] x8 | x8 | x8 | %35
 x8 | x8 | x8 | x8 | x8 | x8 | x8 | x8 | x8 | x8 | x8 | x8 |[K:bass] x8 | x8 | x8 | x8 | x8 | x8 | %53
 x8 | x8 | x8 | x8 | x8 | x8 | x8 | x8 | x8 | x8 | x2[K:treble] x6 | x8 |[K:bass] x8 | x8 | x8 | %68
 x8 | x8 | x8 | x8 | x8 | x8 | x8 | x8 | x8 | x8 | x8 | x8 | x8 | x8 | x8 | x8 | x8 |] %85

